public/images/icons/activity/date.svg

<svg xmlns="http://www.w3.org/2000/svg" width="18" height="18" viewBox="0 0 18 18"><g fill="none" fill-rule="evenodd"><polygon points="0 0 18 0 18 18 0 18"/><path fill="#8C8C8C" fill-rule="nonzero" d="M12.3975,8.295 L11.6025,7.5 L7.9425,11.16 L6.3525,9.57 L5.5575,10.365 L7.9425,12.75 L12.3975,8.295 L12.3975,8.295 Z M14.25,2.25 L13.5,2.25 L13.5,0.75 L12,0.75 L12,2.25 L6,2.25 L6,0.75 L4.5,0.75 L4.5,2.25 L3.75,2.25 C2.9175,2.25 2.2575,2.925 2.2575,3.75 L2.25,14.25 C2.25,15.075 2.9175,15.75 3.75,15.75 L14.25,15.75 C15.075,15.75 15.75,15.075 15.75,14.25 L15.75,3.75 C15.75,2.925 15.075,2.25 14.25,2.25 Z M14.25,14.25 L3.75,14.25 L3.75,6 L14.25,6 L14.25,14.25 Z"/></g></svg>

<svg viewBox="0 0 18 18"><g fill="none" fill-rule="evenodd"><path d="M0 0h18v18H0z"/><path fill="#8C8C8C" fill-rule="nonzero" d="M12.398 8.295l-.796-.795-3.66 3.66-1.59-1.59-.795.795 2.385 2.385 4.456-4.455zM14.25 2.25h-.75V.75H12v1.5H6V.75H4.5v1.5h-.75c-.833 0-1.493.675-1.493 1.5l-.007 10.5a1.5 1.5 0 001.5 1.5h10.5c.825 0 1.5-.675 1.5-1.5V3.75c0-.825-.675-1.5-1.5-1.5zm0 12H3.75V6h10.5v8.25z"/></g></svg>
